static/images/hero/piperocket-logo-white.svg

<svg width="126" height="19" viewBox="0 0 126 19" fill="none" xmlns="http://www.w3.org/2000/svg">
<g clip-path="url(#clip0_287_1684)">
<path d="M20.4657 0H10.3684C10.2146 0 10.0639 0.0582631 9.95626 0.163137L0.163421 9.68626C-0.190277 10.03 0.068077 10.6097 0.575556 10.6097H10.03V18.4548C10.03 18.9355 10.6421 19.1802 11.005 18.8452L21.0562 9.57261C21.1669 9.47067 21.2284 9.33084 21.2284 9.18228V0.725378C21.2284 0.32336 20.884 0 20.4626 0H20.4657Z" fill="#0BA6E2"/>
<path d="M10.03 10.6097V18.4549C10.03 18.9355 10.6421 19.1802 11.0049 18.8452L21.0562 9.57261C21.1669 9.47067 21.2284 9.33084 21.2284 9.18228V0.725378C21.2284 0.32336 20.8839 0 20.4625 0H10.3652C10.2115 0 9.95312 0.0611764 9.95312 0.308795" fill="url(#paint0_linear_287_1684)"/>
<path d="M28.3664 12.7508V0.719421H33.7303C33.8533 0.719421 34.0194 0.722337 34.2285 0.731077C34.4377 0.739811 34.6253 0.757291 34.7883 0.786426C35.548 0.897125 36.1693 1.13309 36.6552 1.49723C37.1412 1.85847 37.4979 2.31583 37.7255 2.86351C37.9531 3.41118 38.07 4.02294 38.07 4.69879C38.07 5.37465 37.9531 5.98351 37.7224 6.53409C37.4887 7.08177 37.1319 7.53913 36.646 7.90037C36.16 8.26161 35.5418 8.49756 34.7883 8.61115C34.6222 8.63448 34.4346 8.64903 34.2224 8.66067C34.0101 8.67236 33.8472 8.67818 33.7272 8.67818H30.7623V12.7566H28.3633L28.3664 12.7508ZM30.7654 6.55155H33.6226C33.7457 6.55155 33.881 6.54573 34.0286 6.53409C34.1763 6.52245 34.3115 6.49912 34.4346 6.46706C34.7576 6.38263 35.0067 6.24274 35.1851 6.04466C35.3604 5.84658 35.4834 5.62809 35.551 5.38339C35.6187 5.14159 35.6525 4.91146 35.6525 4.69297C35.6525 4.47448 35.6187 4.24725 35.551 4.00255C35.4834 3.76076 35.3604 3.53936 35.1851 3.34126C35.0097 3.14317 34.7576 3.00333 34.4346 2.91886C34.3115 2.88681 34.1763 2.86351 34.0286 2.85185C33.881 2.8402 33.7457 2.83437 33.6226 2.83437H30.7654V6.54282V6.55155Z" fill="white"/>
<path d="M42.4107 3.72586H40.0117V12.7479H42.4107V3.72586Z" fill="white"/>
<path d="M42.4107 1.55554H42.4045C42.3769 0.952516 41.854 0.468933 41.2112 0.468933C40.5684 0.468933 40.0456 0.949606 40.0179 1.55554H40.0117C40.0117 1.55554 40.0117 1.57302 40.0117 1.58176C40.0117 1.5905 40.0117 1.59924 40.0117 1.60798H40.0179C40.0456 2.211 40.5684 2.69458 41.2112 2.69458C41.854 2.69458 42.3769 2.21391 42.4045 1.60798H42.4107C42.4107 1.60798 42.4107 1.5905 42.4107 1.58176C42.4107 1.57302 42.4107 1.56428 42.4107 1.55554Z" fill="white"/>
<path d="M53.5628 5.78535C53.1876 5.06871 52.6616 4.50647 51.988 4.09572C51.3114 3.68205 50.5179 3.47522 49.6075 3.47522C48.6971 3.47522 47.9405 3.68497 47.3223 4.10446C47.2639 4.14233 47.2085 4.18312 47.1532 4.22681V3.72575H45.0371V16.7592H47.4515V12.4303C48.0697 12.809 48.8294 12.9983 49.7274 12.9983C50.6255 12.9983 51.3698 12.7915 52.028 12.372C52.6862 11.9554 53.1998 11.3844 53.5689 10.6678C53.9349 9.95117 54.1194 9.13839 54.1194 8.2382C54.1194 7.33808 53.9349 6.49905 53.5597 5.78535H53.5628ZM51.3453 9.622C51.1853 10.0357 50.9423 10.3648 50.6133 10.6124C50.2842 10.8572 49.8566 10.9824 49.343 10.9824C48.8294 10.9824 48.3803 10.8688 48.0605 10.6387C47.7375 10.4085 47.5099 10.091 47.3684 9.67734C47.2269 9.26658 47.1562 8.78588 47.1562 8.24111C47.1562 7.69641 47.2269 7.21571 47.3684 6.80495C47.5099 6.39129 47.7344 6.07084 48.0451 5.84362C48.3557 5.61347 48.7586 5.49986 49.2569 5.49986C49.7951 5.49986 50.2319 5.62513 50.5763 5.87275C50.9208 6.12036 51.1761 6.45244 51.3391 6.86611C51.5052 7.28274 51.5882 7.74011 51.5882 8.24111C51.5882 8.74218 51.5082 9.20833 51.3483 9.62491L51.3453 9.622Z" fill="white"/>
<path d="M64.8039 8.87341C64.9055 7.78103 64.7858 6.83424 64.4504 6.02727C64.1182 5.21743 63.5985 4.5911 62.9002 4.1483C62.202 3.70258 61.35 3.47827 60.3504 3.47827C59.4093 3.47827 58.5789 3.6822 57.8561 4.08421C57.1302 4.48914 56.5644 5.05721 56.1553 5.7855C55.7432 6.51379 55.5371 7.37318 55.5371 8.3578C55.5371 9.26089 55.7462 10.0591 56.1676 10.7583C56.5889 11.4603 57.1702 12.008 57.9146 12.4071C58.6588 12.8033 59.52 13.0014 60.495 13.0014C61.4115 13.0014 62.2574 12.7742 63.0293 12.3168C63.8041 11.8623 64.367 11.2185 64.7268 10.3941L62.3281 9.7445C62.1497 10.1145 61.8944 10.3941 61.5622 10.5893C61.227 10.7845 60.821 10.8835 60.3535 10.8835C59.6062 10.8835 59.0402 10.6534 58.6558 10.1931C58.3759 9.85808 58.1945 9.41818 58.1175 8.87638H64.8071L64.8039 8.87341ZM58.1821 7.18674C58.2744 6.7672 58.4312 6.42348 58.6496 6.15546C59.0372 5.68354 59.6369 5.44757 60.455 5.44757C61.1532 5.44757 61.6576 5.64858 61.9683 6.05351C62.1682 6.31862 62.3066 6.69732 62.3773 7.18384H58.179L58.1821 7.18674Z" fill="white"/>
<path d="M74.3723 8.29361C74.9265 8.06056 75.369 7.72266 75.6981 7.27984C76.2272 6.56319 76.4918 5.70383 76.4918 4.69588C76.4918 4.02294 76.3777 3.41118 76.147 2.86351C75.9194 2.31292 75.5596 1.85847 75.0769 1.49723C74.5942 1.13309 73.9699 0.900034 73.2133 0.786426C73.0471 0.757291 72.8597 0.739811 72.6535 0.731077C72.4441 0.722337 72.278 0.719421 72.1551 0.719421H66.791V12.7508H69.19V8.67236H71.8661L73.9542 12.7508H76.6698L74.3755 8.29361H74.3723ZM69.1869 2.8402H72.0442C72.1676 2.8402 72.2999 2.84603 72.4472 2.85768C72.5952 2.86933 72.7299 2.88972 72.8534 2.92468C73.1763 3.00916 73.4251 3.14899 73.6038 3.34709C73.7818 3.54518 73.9022 3.76658 73.9699 4.00546C74.0376 4.24725 74.0746 4.4774 74.0746 4.69588C74.0746 4.91437 74.0407 5.14159 73.9699 5.3863C73.9022 5.62518 73.7818 5.84658 73.6038 6.04466C73.4251 6.24274 73.1794 6.38263 72.8534 6.46706C72.7299 6.50203 72.5952 6.52245 72.4472 6.53409C72.2999 6.54573 72.1676 6.55155 72.0442 6.55155H69.1869V2.8402Z" fill="white"/>
<path d="M82.8938 13.0014C81.934 13.0014 81.0947 12.7974 80.3719 12.3925C79.6491 11.9847 79.0862 11.4253 78.6831 10.7088C78.28 9.99209 78.0801 9.17058 78.0801 8.2413C78.0801 7.31197 78.2863 6.47009 78.6988 5.75637C79.1106 5.04264 79.6767 4.48331 80.4026 4.0813C81.1254 3.67928 81.9585 3.47827 82.9 3.47827C83.841 3.47827 84.7023 3.6822 85.4282 4.08713C86.1541 4.49497 86.7195 5.05429 87.1258 5.77093C87.532 6.48754 87.7344 7.30906 87.7344 8.23839C87.7344 9.16767 87.532 10.0008 87.1226 10.7146C86.7139 11.4312 86.1478 11.9905 85.4188 12.3925C84.6929 12.7974 83.8535 12.9985 82.9 12.9985L82.8938 13.0014ZM82.8938 10.8806C83.6623 10.8806 84.2378 10.633 84.6189 10.1407C84.9975 9.64831 85.1881 9.0133 85.1881 8.2413C85.1881 7.46931 84.9944 6.79926 84.6101 6.31862C84.2252 5.84084 83.6535 5.59905 82.8938 5.59905C82.371 5.59905 81.9403 5.70975 81.6049 5.93406C81.2696 6.15546 81.0207 6.46718 80.8609 6.86042C80.6979 7.25663 80.6176 7.7169 80.6176 8.23839C80.6176 9.0453 80.8113 9.6891 81.1962 10.164C81.5805 10.6388 82.1466 10.8777 82.8938 10.8777V10.8806Z" fill="white"/>
<path d="M93.869 13.0014C92.8817 13.0014 92.036 12.7916 91.3283 12.375C90.6212 11.9585 90.0827 11.3904 89.7047 10.6709C89.3292 9.9513 89.1387 9.14143 89.1387 8.23839C89.1387 7.3353 89.3355 6.50797 89.726 5.79132C90.1166 5.07177 90.6676 4.50662 91.381 4.09586C92.0912 3.68511 92.9343 3.47827 93.9028 3.47827C95.0256 3.47827 95.9696 3.74628 96.7294 4.28522C97.4891 4.82415 97.9781 5.55536 98.1906 6.48754L95.7916 7.08765C95.6499 6.61864 95.4036 6.2545 95.0531 5.99236C94.7027 5.73014 94.3091 5.59905 93.8659 5.59905C93.3587 5.59905 92.9462 5.71558 92.6234 5.94569C92.3006 6.17588 92.0605 6.49045 91.91 6.88957C91.7558 7.28869 91.6794 7.73733 91.6794 8.23839C91.6794 9.02493 91.8637 9.66001 92.2297 10.1465C92.5958 10.633 93.1431 10.8777 93.8659 10.8777C94.4075 10.8777 94.8193 10.7612 95.1027 10.5252C95.3854 10.2922 95.5979 9.95712 95.7358 9.52309L98.1875 10.0066C97.9167 10.9651 97.4058 11.7021 96.6523 12.2207C95.8988 12.7392 94.9704 12.9985 93.8659 12.9985L93.869 13.0014Z" fill="white"/>
<path d="M99.9375 12.7508L99.9563 0.719421H102.389V8.0722L105.618 3.72871H108.583L105.145 8.24118L108.814 12.7537H105.692L102.392 8.41016V12.7537H99.9406L99.9375 12.7508Z" fill="white"/>
<path d="M118.259 8.87341C118.358 7.78103 118.24 6.83424 117.906 6.02727C117.57 5.21743 117.053 4.5911 116.355 4.1483C115.657 3.70258 114.805 3.47827 113.805 3.47827C112.864 3.47827 112.034 3.6822 111.308 4.08421C110.585 4.48914 110.02 5.05721 109.607 5.7855C109.198 6.51379 108.992 7.37318 108.992 8.3578C108.992 9.26089 109.202 10.0591 109.623 10.7583C110.041 11.4603 110.622 12.008 111.37 12.4071C112.114 12.8033 112.972 13.0014 113.947 13.0014C114.863 13.0014 115.712 12.7742 116.484 12.3168C117.256 11.8623 117.822 11.2185 118.182 10.3941L115.78 9.7445C115.602 10.1145 115.349 10.3941 115.014 10.5893C114.682 10.7845 114.276 10.8835 113.808 10.8835C113.058 10.8835 112.492 10.6534 112.111 10.1931C111.828 9.85808 111.649 9.41818 111.572 8.87638H118.262L118.259 8.87341ZM111.634 7.18674C111.727 6.7672 111.886 6.42348 112.105 6.15546C112.489 5.68354 113.089 5.44757 113.907 5.44757C114.608 5.44757 115.113 5.64858 115.42 6.05351C115.623 6.31862 115.759 6.69732 115.829 7.18384H111.631L111.634 7.18674Z" fill="white"/>
<path d="M123.205 5.4825V8.79184C123.205 9.14434 123.211 9.45897 123.22 9.74154C123.226 10.0212 123.288 10.2484 123.399 10.4116C123.61 10.7291 123.946 10.9039 124.413 10.9301C124.878 10.9593 125.391 10.9359 125.957 10.8631V12.7508C125.299 12.8673 124.654 12.9198 124.023 12.9052C123.389 12.8907 122.826 12.7858 122.328 12.5877C121.83 12.3925 121.452 12.0721 121.193 11.6322C120.956 11.2185 120.837 10.799 120.824 10.3737C120.811 9.94543 120.806 9.46188 120.806 8.92294V5.47959H119.182V3.72587H120.806V1.22055H123.205V3.72587H125.957V5.47959H123.205V5.4825Z" fill="white"/>
</g>
<defs>
<linearGradient id="paint0_linear_287_1684" x1="9.95312" y1="9.49982" x2="21.2314" y2="9.49982" gradientUnits="userSpaceOnUse">
<stop stop-color="#FF0025"/>
<stop offset="1" stop-color="#FF0025"/>
</linearGradient>
<clipPath id="clip0_287_1684">
<rect width="126" height="19" fill="white"/>
</clipPath>
</defs>
</svg>

<svg xmlns="http://www.w3.org/2000/svg" width="126" height="19" fill="none" viewBox="0 0 126 19"><g clip-path="url(#a)"><path fill="#0ba6e2" d="M20.466 0H10.368a.6.6 0 0 0-.412.163L.163 9.686c-.353.344-.095.924.413.924h9.454v7.845c0 .48.612.725.975.39l10.051-9.272a.53.53 0 0 0 .172-.39V.724c0-.402-.344-.725-.765-.725z"/><path fill="url(#b)" d="M10.03 10.61v7.845c0 .48.612.725.975.39l10.051-9.272a.53.53 0 0 0 .172-.39V.724c0-.402-.344-.725-.766-.725H10.365c-.154 0-.412.061-.412.309"/><path fill="#fff" d="M28.366 12.75V.72h5.364q.185-.001.498.011.315.013.56.055 1.139.166 1.867.711.73.543 1.07 1.367a4.7 4.7 0 0 1 .345 1.835q0 1.012-.348 1.835A3.3 3.3 0 0 1 36.646 7.9q-.728.542-1.858.711a7 7 0 0 1-.566.05 10 10 0 0 1-.495.017h-2.965v4.079h-2.399zm2.4-6.198h2.857q.184 0 .406-.018.22-.018.406-.067.484-.125.75-.422.263-.296.366-.662.102-.362.102-.69c0-.219-.034-.446-.102-.69a1.7 1.7 0 0 0-.366-.662q-.264-.296-.75-.422a2.3 2.3 0 0 0-.406-.067 5 5 0 0 0-.406-.018h-2.858v3.718M42.41 3.726h-2.398v9.022h2.399zm0-2.17h-.005C42.377.953 41.854.469 41.21.469s-1.165.48-1.193 1.087h-.006v.052h.006c.028.603.55 1.087 1.193 1.087s1.166-.481 1.194-1.087h.006zm11.153 4.229a4.25 4.25 0 0 0-1.575-1.69q-1.015-.62-2.38-.62c-.91 0-1.667.21-2.286.63a2 2 0 0 0-.169.122v-.501h-2.116v13.033h2.415V12.43q.928.568 2.275.568c.899 0 1.643-.207 2.301-.626a4.3 4.3 0 0 0 1.54-1.704c.367-.717.551-1.53.551-2.43s-.184-1.739-.56-2.453zm-2.218 3.837q-.24.62-.732.99c-.329.245-.756.37-1.27.37s-.963-.113-1.283-.343c-.323-.23-.55-.548-.692-.962q-.212-.617-.212-1.436t.212-1.436q.212-.62.677-.961.465-.344 1.212-.344c.538 0 .975.125 1.32.373q.518.372.762.993.25.624.25 1.375c0 .501-.08.967-.24 1.384zm13.459-.749q.151-1.637-.354-2.846c-.332-.81-.852-1.436-1.55-1.879q-1.049-.669-2.55-.67-1.41.002-2.494.606a4.35 4.35 0 0 0-1.7 1.702q-.62 1.093-.619 2.572 0 1.353.63 2.4a4.43 4.43 0 0 0 1.748 1.65q1.117.593 2.58.593 1.375 0 2.534-.684a4.05 4.05 0 0 0 1.698-1.923l-2.399-.65q-.268.554-.766.845c-.335.195-.741.294-1.209.294q-1.12 0-1.697-.69-.422-.503-.538-1.317h6.69zm-6.622-1.686q.14-.63.468-1.032.58-.707 1.805-.707 1.047-.002 1.513.606.302.398.41 1.13h-4.199zm16.19 1.107q.833-.35 1.326-1.014.794-1.074.794-2.584 0-1.01-.345-1.832a3.2 3.2 0 0 0-1.07-1.367c-.483-.364-1.107-.597-1.864-.71a4 4 0 0 0-.56-.056Q72.34.718 72.155.72h-5.364v12.032h2.399v-4.08h2.676l2.088 4.079h2.716l-2.294-4.457zM69.187 2.84h2.857q.184 0 .403.018.222.015.406.067.484.126.75.422c.179.198.3.42.367.658q.103.363.105.69c0 .22-.034.447-.105.691q-.1.36-.366.659c-.179.198-.425.338-.75.422a2 2 0 0 1-.407.067 5 5 0 0 1-.403.018h-2.857zm13.707 10.161q-1.44-.001-2.522-.608a4.35 4.35 0 0 1-1.689-1.684q-.604-1.074-.603-2.468c0-.929.206-1.77.619-2.485a4.4 4.4 0 0 1 1.704-1.675q1.084-.603 2.497-.603c.941 0 1.802.204 2.528.61a4.37 4.37 0 0 1 1.698 1.683q.609 1.075.608 2.467c0 .93-.202 1.763-.611 2.477a4.33 4.33 0 0 1-1.704 1.678q-1.088.605-2.519.605zm0-2.12q1.153-.001 1.725-.74.57-.74.57-1.9c0-.772-.195-1.442-.579-1.922q-.578-.718-1.716-.72-.785-.001-1.29.335a1.97 1.97 0 0 0-.743.926q-.244.596-.243 1.378 0 1.212.578 1.926.577.713 1.698.714zm10.975 2.12q-1.48-.001-2.54-.626a4.2 4.2 0 0 1-1.624-1.704q-.565-1.08-.566-2.433c0-.903.197-1.73.587-2.447q.585-1.08 1.655-1.695 1.067-.616 2.522-.618 1.686 0 2.826.807c.76.54 1.25 1.27 1.462 2.203l-2.4.6q-.212-.703-.738-1.096a1.93 1.93 0 0 0-1.187-.393q-.76.001-1.243.347-.485.345-.713.944-.23.598-.23 1.348 0 1.18.55 1.909t1.636.73q.811.001 1.237-.352.424-.35.633-1.002l2.451.484q-.405 1.436-1.535 2.214-1.13.777-2.786.777zm6.069-.251L99.956.72h2.433v7.352l3.229-4.343h2.965l-3.438 4.512 3.669 4.513h-3.122l-3.3-4.344v4.344h-2.451zm18.321-3.877q.148-1.637-.353-2.846-.504-1.215-1.551-1.879-1.049-.669-2.55-.67-1.41.002-2.497.606a4.4 4.4 0 0 0-1.701 1.702q-.614 1.093-.615 2.572 0 1.353.631 2.4.626 1.051 1.747 1.65 1.115.593 2.577.593c.916 0 1.765-.227 2.537-.684a4.07 4.07 0 0 0 1.698-1.923l-2.402-.65q-.265.554-.766.845c-.332.195-.738.294-1.206.294q-1.125 0-1.697-.69-.424-.503-.539-1.317h6.69zm-6.625-1.686q.141-.63.471-1.032.575-.707 1.802-.707 1.052-.002 1.513.606.304.398.409 1.13h-4.198zm11.571-1.704v3.309q0 .527.015.95c.006.28.068.506.179.67q.315.477 1.014.518.696.044 1.544-.067v1.888a10 10 0 0 1-1.934.154q-.95-.021-1.695-.317a2.2 2.2 0 0 1-1.135-.956 2.7 2.7 0 0 1-.369-1.258 49 49 0 0 1-.018-1.451V5.48h-1.624V3.726h1.624V1.22h2.399v2.505h2.752V5.48h-2.752z"/></g><defs><linearGradient id="b" x1="9.953" x2="21.231" y1="9.5" y2="9.5" gradientUnits="userSpaceOnUse"><stop stop-color="#ff0025"/><stop offset="1" stop-color="#ff0025"/></linearGradient><clipPath id="a"><path fill="#fff" d="M0 0h126v19H0z"/></clipPath></defs></svg>
